X:1034
T:Starry Nights of Shetland #2, The
C:Joe Buchanan's Scottish Tome - Page 621.1
I:621 1
Z:Carl Allison
R:Waltz
L:1/4
M:3/4
K:D
A | f2 d | A (B A) | (G2 G) | (c2 B) | (A2 c) | (e2 A) | f3- | f2 A |
f2 d | A (B A) | (G2 G) | (c2 B) | A c e/f/ | g B c | d3- | d2 |]
(e/f/) | g B g | f A f | f A f | f d f | a g f | e3 | e d e |
f2 d | A (B A) | (G2 G) | (c2 B) | A c e/f/ | g B c | d3- | d2 |]

